X:1
T:Title
%%score { ( 1 2 ) | ( 3 4 ) }
L:1/8
Q:1/4=92
M:6/8
K:C
V:1 treble nm="Grand Piano"
V:2 treble 
V:3 bass 
V:4 bass 
V:1
 [Ec][EB][EA] GAE | G2 F F2 F | BAG BAG |[M:5/8] [FA]2 [EG] [CE]2 |[M:1/8] [EG] | %5
w: Charles~H.~Gabriel * * * * *|||||
[M:3/4] [Ec][DB] [Ec] [Fd]2 [Ec] | [EG]^F [CEG] [C=FA]2 [CFA] | ^F-[FB] [Fc]d B[DG] | %8
w: |||
 [DB]2 [CA] [G,B,G]3 |[M:1/8] z |[M:3/4] z2 z2 z [G,E] | G6 | z2 z c3- |[M:5/8] c-c- c3 | %14
w: ||||||
[M:1/8] [Ec] |[M:3/4] .e2 z2 z2 | G6- | G2 z2 z2 | [Ec]6 |] %19
w: |||||
V:2
 z3 .E3 | x6 | x6 |[M:5/8] x5 |[M:1/8] x |[M:3/4] x6 | x6 | .[CA]2 z2 z2 | x6 |[M:1/8] x | %10
[M:3/4] x6 | [G,E]F D E2 c | cd .B2 z E |[M:5/8] EFD E2 |[M:1/8] x |[M:3/4] G-[Gd] [Gc][Ac] BA | %16
 z2 DC [B,F][CE] | [B,D]2 z [Fd]3 | x6 |] %19
V:3
 [C,G,][C,G,][C,G,] [C,C]2 [C,G,C] | [G,E]2 [G,D] [G,D]2 [G,D] | .D3 .D3 | %3
[M:5/8][K:bass] [C,C]2 [C,C] [C,G,]2 |[M:1/8] [C,C] |[M:3/4] [C,G,]2 [C,G,] [C,G,]2 [C,G,] | %6
 z _E C, F,2 F, | z B, [D,A,][K:treble][G,B,G] [G,D][K:bass][B,,G,] | [D,G,]2 [D,^F,] G,,3 | %9
[M:1/8][K:treble] G |[M:3/4] z2 z G3[K:bass] | z A, [C,F,] .[C,G,]3 | z2 z2 z [C,G,] | %13
[M:5/8] G,A,[C,F,] [C,G,]2 |[M:1/8] [C,G,] |[M:3/4] [C,C][D,B,] .[E,C]2[K:treble] G[F,CF] | %16
 [G,CE]2 [F,B,]E, D,C, | G,,2 z G,3 | [C,G,]6 |] %19
V:4
 x6 | x6 | [G,F]-[G,CF][G,B,F] [G,F]-[G,CF][G,B,F] |[M:5/8][K:bass] x5 |[M:1/8] x |[M:3/4] x6 | %6
 [C,C]2 z2 z2 | D,2 z2[K:treble] z2[K:bass] | x6 |[M:1/8][K:treble] x | %10
[M:3/4] GA .E2 z[K:bass] C, | C,2 z2 z2 | x6 |[M:5/8] C,2 z z2 |[M:1/8] x | %15
[M:3/4] z2 z .[F,C]3[K:treble] | x6 | x6 | x6 |] %19

